X:3426
L:1/8
Q:1/4=100
M:6/8
K:G
"^(editorial suggestion)" D | GED G2 D | GBd d2 B | ccA B2 G | AGE D2 B | Bcd EFG | ABA"^(a)" GFD | 
 E>FG AFE | D G2- G2 || D | GED G2 D | GBd d2 B | ccA B2 G | AGE D2 B | Bcd EFG | 
 ABA"^(a) var." GF/E/D | E>FG AFE | D G2- G2 |]

